X: 3882
T: Black Rosie
R: jig
M: 6/8
K: Gmajor
|:B/c/|dBG efg|dBG AFD|GFG Bge|dBG ABc|
dBG efg|dBG AFD|EGe dBG|AGF G2:|
|:e/f/|gdg fed|e/f/ge dBG|gfg dBG|EFG ABc|
def gfg|ece dBG|EGe dBG|AGF G2:|

